X: 4485
T: Bonny Anne
R: reel
M: 4/4
K: Dmixolydian
f2ed cAAB|cAdB cAAe|f2ed cAAB|cAGE FDD2|
f2ed cAAB|cAdB cAGE|DEFG Addc|~A2GE FDD2:|
|:Addc defg|~a3f gbag|fddc dfed|cAGE EFGE|
Addc defg|~a3f g2fg|af (3gfe dfed|cAGE FDD2:|

